Yaru++/mimetypes/scalable/video-x-generic.svg

<svg height="256" viewBox="0 0 67.73 67.73" width="256" xmlns="http://www.w3.org/2000/svg" xmlns:xlink="http://www.w3.org/1999/xlink">
  <linearGradient id="linearGradient4226" gradientTransform="matrix(.11988932 0 0 .11988589 4.187091 3.09813)" gradientUnits="userSpaceOnUse" x1="529.655" x2="-35.31" y1="401.584" y2="119.093">
    <stop offset="0" stop-color="#331d3b"/>
    <stop offset="1" stop-color="#281d2c"/>
  </linearGradient>
  <linearGradient id="linearGradient4358" gradientTransform="matrix(0 -.13229167 .13229167 0 -5.602492 74.78884)" gradientUnits="userSpaceOnUse" x1="88" x2="488" y1="88" y2="488">
    <stop offset="0" stop-opacity=".588235"/>
    <stop offset=".88" stop-opacity="0"/>
    <stop offset="1"/>
  </linearGradient>
  <filter id="filter4346" color-interpolation-filters="sRGB" height="1.022" width="1.026" x="-.01" y="-.01">
    <feGaussianBlur stdDeviation="2.12"/>
  </filter>
  <path d="m189.84323 74c-70.59344 0-78.18921 7.250835-77.84323 77.98706v292.02588c-.34598 70.73623 7.24979 77.98706 77.84323 77.98706h196.31354c70.59344 0 76.00668-7.27384 77.84323-77.98706v-292.02588c0-70.737067-7.24979-77.98706-77.84323-77.98706z" filter="url(#filter4346)" opacity=".1" transform="matrix(0 -.13229167 .13229167 0 -5.602492 74.78884)"/>
  <path d="m4.1870917 49.674162c0 9.338924.9592251 10.343781 10.3170383 10.298011h38.632591c9.357814.04577 10.317039-.959087 10.317039-10.298011v-25.970646c0-9.338924-.959113-10.298011-10.317039-10.298011h-38.632591c-9.3579246 0-10.3170383.959087-10.3170383 10.298011z" fill="url(#linearGradient4358)" opacity=".3" visibility="hidden"/>
  <path d="m63.453758 23.44036c0-9.33893-.959226-10.34378-10.317038-10.29801h-38.632591c-9.3578153-.0458-10.317038.95908-10.317038 10.29801v25.97064c0 9.33893.9591145 10.29802 10.317038 10.29802h38.632591c9.357923 0 10.317038-.95909 10.317038-10.29802z" fill="url(#linearGradient4226)"/>
  <g fill="#fff">
    <path d="m4.1870907 36.42568h59.2666673v12.98525c0 9.33893-.962171 10.05513-10.316943 10.29809h-38.632782c-9.3579257 0-10.3169423-.95916-10.3169423-10.29809z" opacity=".04"/>
    <path d="m33.820425 13.14235h19.31639c9.357815-.0458 10.316943.95915 10.316943 10.29808v25.9705c0 9.33893-.962171 10.05513-10.316943 10.29809h-19.31639z" opacity=".04"/>
    <path d="m14.503972 13.14215c-9.3578139-.0458-10.316684.95915-10.316684 10.29808v.52917c0-9.33893.9588698-10.34385 10.316684-10.29808h38.632785c9.357815-.0458 10.317199.95915 10.317199 10.29808v-.52917c0-9.33893-.959384-10.34385-10.317199-10.29808h-19.316134z" opacity=".2"/>
  </g>
  <path d="m4.1872883 48.88209v.52916c0 9.33893.9587585 10.29757 10.3166837 10.29757h38.632785c9.357923 0 10.317199-.95864 10.317199-10.29757v-.52916c0 9.33892-.959276 10.29756-10.317199 10.29756h-38.632785c-9.3579249 0-10.3166837-.95864-10.3166837-10.29756z" opacity=".2"/>
  <path d="m31.476562 51.443359-1.3125.277344c-5.859352 1.232018-11.136371 6.604167-12.234374 12.457031l-.273438 1.466797h6.910156 6.910156v-7.101562zm192.642578 0v7.09961 7.101562h7.04688 7.04492l-.62891-2.121093c-.91894-3.099715-1.99758-5.016233-4.07422-7.236329-1.8454-1.972886-5.46005-4.016328-8.07617-4.566406zm-207.484374 22.277344-.251954 1.261719c-.138827.694139-.251953 4.23771-.251953 7.875v6.613281h7.671875 7.673828v-7.875-7.875h-7.419921zm207.484374 0v7.875 7.875h7.67383 7.67383v-7.236328c0-3.980075-.11127-7.523647-.2461-7.875-.21124-.550486-1.27279-.638672-7.67382-.638672zm-207.988281 24.232422v7.673825 7.67188h7.671875 7.673828v-7.67188-7.673825h-7.673828zm207.988281 0v7.673825 7.67188h7.67383 7.67383v-7.67188-7.673825h-7.67383zm-207.988281 23.828125v7.875 7.875h7.671875 7.673828v-7.875-7.875h-7.673828zm207.988281 0v7.875 7.875h7.67383 7.67383v-7.875-7.875h-7.67383zm-207.988281 24.23047v7.67383 7.67383h7.671875 7.673828v-7.67383-7.67383h-7.673828zm207.988281 0v7.67383 7.67383h7.67383 7.67383v-7.67383-7.67383h-7.67383zm-207.988281 23.82812v7.875 7.87696h7.671875 7.673828v-7.87696-7.875h-7.673828zm207.988281 0v7.875 7.87696h7.67383 7.67383v-7.87696-7.875h-7.67383zm-207.988281 24.23243.013672 2.11914c.016083 2.50734.649284 9.83176 1.023438 11.82617l.263672 1.40039h7.023437 7.021484v-7.67188-7.67382h-7.673828zm207.988281 0v7.67382 7.67188h7.03516 7.03515l.23633-1.10938c.42223-1.99341 1.0262-8.72111 1.0332-11.50976l.00782-2.72656h-7.67383zm-203.283202 23.82812.955078 1.01758c1.485061 1.58077 4.618453 3.44147 7.166015 4.25586 1.274562.40744 2.362439.74972 2.417969.76172.055536.01194.101562-1.33992.101562-3.00586v-3.0293h-5.320312zm203.283202 0v3.00586 3.00781l2.12109-.62304c2.86976-.84241 5.61043-2.37018 7.21094-4.02149l1.32617-1.36914h-5.32812z" fill="#fff" opacity=".1" transform="scale(.26457031)"/>
  <path d="m23.237886 23.72497v25.4s12.037194-5.20675 22.56388-12.70802c0-.002-.0013-.004-.0027-.007-.0013-.003-.0027-.006-.0047-.008-.0021-.003-.004-.006-.0054-.008-.0019-.003-.0027-.006-.0027-.008-11.10361-7.74051-22.548431-12.66049-22.548431-12.66049z" fill="#fff" opacity=".6"/>
</svg>

<svg xmlns="http://www.w3.org/2000/svg" width="256" height="256" version="1.1" viewBox="0 0 67.73 67.73">
 <defs>
  <clipPath id="clipPath1101">
   <path d="m39.9973 106.92432c0-35.29673 3.625418-39.09461 38.99353-38.92162h146.01294c35.36812-0.17299 38.99353 3.62489 38.99353 38.92162v98.15676c0 35.29672-3.625 38.92162-38.99353 38.92162h-146.01294c-35.368533 0-38.99353-3.6249-38.99353-38.92162z" style="fill:url(#linearGradient1105)"/>
  </clipPath>
  <linearGradient id="linearGradient4226" x1="529.655" x2="-35.31" y1="401.584" y2="119.093" gradientTransform="matrix(0.11988932,0,0,0.11988589,4.1870906,3.09813)" gradientUnits="userSpaceOnUse">
   <stop id="stop5" offset="0" style="stop-color:#331d3b"/>
   <stop id="stop7" offset="1" style="stop-color:#281d2c"/>
  </linearGradient>
  <linearGradient id="linearGradient4358" x1="88" x2="488" y1="88" y2="488" gradientTransform="matrix(0,-0.13229167,0.13229167,0,-5.6024919,74.78884)" gradientUnits="userSpaceOnUse">
   <stop id="stop10" offset="0" style="stop-color:#000000;stop-opacity:.58823532"/>
   <stop id="stop12" offset=".88" style="stop-color:#000000;stop-opacity:0"/>
   <stop id="stop14" offset="1" style="stop-color:#000000"/>
  </linearGradient>
  <filter style="color-interpolation-filters:sRGB" id="filter4346" width="1.026" height="1.022" x="-.01" y="-.01">
   <feGaussianBlur id="feGaussianBlur17" stdDeviation="2.12"/>
  </filter>
  <clipPath id="clipPath1101-7">
   <path style="fill:url(#linearGradient1105)" d="m 39.9973,106.92432 c 0,-35.29673 3.625418,-39.09461 38.99353,-38.92162 h 146.01294 c 35.36812,-0.17299 38.99353,3.62489 38.99353,38.92162 v 98.15676 c 0,35.29672 -3.625,38.92162 -38.99353,38.92162 H 78.99083 c -35.368533,0 -38.99353,-3.6249 -38.99353,-38.92162 z"/>
  </clipPath>
 </defs>
 <path style="opacity:0.1;filter:url(#filter4346)" d="M 189.84323,74 C 119.24979,74 111.65402,81.250835 112,151.98706 V 444.01294 C 111.65402,514.74917 119.24979,522 189.84323,522 H 386.15677 C 456.75021,522 462.16345,514.72616 464,444.01294 V 151.98706 C 464,81.249993 456.75021,74 386.15677,74 Z" transform="matrix(0,-0.13229167,0.13229167,0,-5.6024919,74.78884)"/>
 <path style="opacity:0.3;fill:url(#linearGradient4358);filter:url(#filter4380)" d="m 4.1870917,49.674162 c 0,9.338924 0.9592251,10.343781 10.3170383,10.298011 H 53.136721 C 62.494535,60.017943 63.45376,59.013086 63.45376,49.674162 V 23.703516 c 0,-9.338924 -0.959113,-10.298011 -10.317039,-10.298011 H 14.50413 c -9.3579246,0 -10.3170383,0.959087 -10.3170383,10.298011 z"/>
 <path style="fill:url(#linearGradient4226)" d="m 63.453758,23.44036 c 0,-9.33893 -0.959226,-10.34378 -10.317038,-10.29801 H 14.504129 C 5.1463137,13.09655 4.187091,14.10143 4.187091,23.44036 V 49.411 c 0,9.33893 0.9591145,10.29802 10.317038,10.29802 H 53.13672 c 9.357923,0 10.317038,-0.95909 10.317038,-10.29802 z"/>
 <path style="opacity:0.04;fill:white" d="M 4.1870907,36.42568 H 63.453758 v 12.98525 c 0,9.33893 -0.962171,10.05513 -10.316943,10.29809 H 14.504033 c -9.3579257,0 -10.3169423,-0.95916 -10.3169423,-10.29809 z"/>
 <path style="opacity:0.04;fill:white" d="m 33.820425,13.14235 h 19.31639 c 9.357815,-0.0458 10.316943,0.95915 10.316943,10.29808 v 25.9705 c 0,9.33893 -0.962171,10.05513 -10.316943,10.29809 h -19.31639 z"/>
 <path style="opacity:0.2;fill:white" d="M 14.503972,13.14215 C 5.1461581,13.09635 4.187288,14.1013 4.187288,23.44023 v 0.52917 c 0,-9.33893 0.9588698,-10.34385 10.316684,-10.29808 h 38.632785 c 9.357815,-0.0458 10.317199,0.95915 10.317199,10.29808 v -0.52917 c 0,-9.33893 -0.959384,-10.34385 -10.317199,-10.29808 H 33.820623 Z"/>
 <path style="opacity:0.2" d="m 4.1872883,48.88209 v 0.52916 c 0,9.33893 0.9587585,10.29757 10.3166837,10.29757 h 38.632785 c 9.357923,0 10.317199,-0.95864 10.317199,-10.29757 v -0.52916 c 0,9.33892 -0.959276,10.29756 -10.317199,10.29756 H 14.503972 c -9.3579249,0 -10.3166837,-0.95864 -10.3166837,-10.29756 z"/>
 <path style="opacity:0.1;fill:white;font-variation-settings:normal" d="M 31.476562 51.443359 L 30.164062 51.720703 C 24.30471 52.952721 19.027691 58.32487 17.929688 64.177734 L 17.65625 65.644531 L 24.566406 65.644531 L 31.476562 65.644531 L 31.476562 58.542969 L 31.476562 51.443359 z M 224.11914 51.443359 L 224.11914 58.542969 L 224.11914 65.644531 L 231.16602 65.644531 L 238.21094 65.644531 L 237.58203 63.523438 C 236.66309 60.423723 235.58445 58.507205 233.50781 56.287109 C 231.66241 54.314223 228.04776 52.270781 225.43164 51.720703 L 224.11914 51.443359 z M 16.634766 73.720703 L 16.382812 74.982422 C 16.243985 75.676561 16.130859 79.220132 16.130859 82.857422 L 16.130859 89.470703 L 23.802734 89.470703 L 31.476562 89.470703 L 31.476562 81.595703 L 31.476562 73.720703 L 24.056641 73.720703 L 16.634766 73.720703 z M 224.11914 73.720703 L 224.11914 81.595703 L 224.11914 89.470703 L 231.79297 89.470703 L 239.4668 89.470703 L 239.4668 82.234375 C 239.4668 78.2543 239.35553 74.710728 239.2207 74.359375 C 239.00946 73.808889 237.94791 73.720703 231.54688 73.720703 L 224.11914 73.720703 z M 16.130859 97.953125 L 16.130859 105.62695 L 16.130859 113.29883 L 23.802734 113.29883 L 31.476562 113.29883 L 31.476562 105.62695 L 31.476562 97.953125 L 23.802734 97.953125 L 16.130859 97.953125 z M 224.11914 97.953125 L 224.11914 105.62695 L 224.11914 113.29883 L 231.79297 113.29883 L 239.4668 113.29883 L 239.4668 105.62695 L 239.4668 97.953125 L 231.79297 97.953125 L 224.11914 97.953125 z M 16.130859 121.78125 L 16.130859 129.65625 L 16.130859 137.53125 L 23.802734 137.53125 L 31.476562 137.53125 L 31.476562 129.65625 L 31.476562 121.78125 L 23.802734 121.78125 L 16.130859 121.78125 z M 224.11914 121.78125 L 224.11914 129.65625 L 224.11914 137.53125 L 231.79297 137.53125 L 239.4668 137.53125 L 239.4668 129.65625 L 239.4668 121.78125 L 231.79297 121.78125 L 224.11914 121.78125 z M 16.130859 146.01172 L 16.130859 153.68555 L 16.130859 161.35938 L 23.802734 161.35938 L 31.476562 161.35938 L 31.476562 153.68555 L 31.476562 146.01172 L 23.802734 146.01172 L 16.130859 146.01172 z M 224.11914 146.01172 L 224.11914 153.68555 L 224.11914 161.35938 L 231.79297 161.35938 L 239.4668 161.35938 L 239.4668 153.68555 L 239.4668 146.01172 L 231.79297 146.01172 L 224.11914 146.01172 z M 16.130859 169.83984 L 16.130859 177.71484 L 16.130859 185.5918 L 23.802734 185.5918 L 31.476562 185.5918 L 31.476562 177.71484 L 31.476562 169.83984 L 23.802734 169.83984 L 16.130859 169.83984 z M 224.11914 169.83984 L 224.11914 177.71484 L 224.11914 185.5918 L 231.79297 185.5918 L 239.4668 185.5918 L 239.4668 177.71484 L 239.4668 169.83984 L 231.79297 169.83984 L 224.11914 169.83984 z M 16.130859 194.07227 L 16.144531 196.19141 C 16.160614 198.69875 16.793815 206.02317 17.167969 208.01758 L 17.431641 209.41797 L 24.455078 209.41797 L 31.476562 209.41797 L 31.476562 201.74609 L 31.476562 194.07227 L 23.802734 194.07227 L 16.130859 194.07227 z M 224.11914 194.07227 L 224.11914 201.74609 L 224.11914 209.41797 L 231.1543 209.41797 L 238.18945 209.41797 L 238.42578 208.30859 C 238.84801 206.31518 239.45198 199.58748 239.45898 196.79883 L 239.4668 194.07227 L 231.79297 194.07227 L 224.11914 194.07227 z M 20.835938 217.90039 L 21.791016 218.91797 C 23.276077 220.49874 26.409469 222.35944 28.957031 223.17383 C 30.231593 223.58127 31.31947 223.92355 31.375 223.93555 C 31.430536 223.94749 31.476562 222.59563 31.476562 220.92969 L 31.476562 217.90039 L 26.15625 217.90039 L 20.835938 217.90039 z M 224.11914 217.90039 L 224.11914 220.90625 L 224.11914 223.91406 L 226.24023 223.29102 C 229.10999 222.44861 231.85066 220.92084 233.45117 219.26953 L 234.77734 217.90039 L 229.44922 217.90039 L 224.11914 217.90039 z" transform="scale(0.26457031)"/>
 <path style="opacity:0.6;fill:white" d="m 23.237886,23.72497 v 25.4 c 0,0 12.037194,-5.20675 22.56388,-12.70802 0,-0.002 -0.0013,-0.004 -0.0027,-0.007 -0.0013,-0.003 -0.0027,-0.006 -0.0047,-0.008 -0.0021,-0.003 -0.004,-0.006 -0.0054,-0.008 -0.0019,-0.003 -0.0027,-0.006 -0.0027,-0.008 C 34.682656,28.64544 23.237835,23.72546 23.237835,23.72546 Z"/>
</svg>
